X: 162
T: My Neighbor
C: Words: John G. Fleischmann, 2007.
C: Music: 'Tallis' Canon' Thomas Tallis, circa 1567. Setting: "A Hymnal" (Episcopal), 1916.
C: SSAATTBB arrangement by Claude (Anthropic), 2026.
C: copyright: Words: Copyright 2007, John G. Fleischmann. These lyrics may be freely reproduced or published for
C: Christian worship, provided they are not altered, and this notice is on each copy. All other rights reserved.
C: Music and Setting: public domain. This score is a part of the Open Hymnal Project, 2011 Revision.
S: Music source: Episcopal Hymnal, 1916 Hymn 25.
M: 4/4
L: 1/4
Q: 1/4=100
%%staves [(1 2) (3 4) (5 6) (7 8)]
V:1 name="Soprano I"  clef=treble
V:2 name="Soprano II" clef=treble
V:3 name="Alto I"     clef=treble
V:4 name="Alto II"    clef=treble
V:5 name="Tenor I"    clef=treble middle=B3 transpose=-12
V:6 name="Tenor II"   clef=treble middle=B3 transpose=-12
V:7 name="Baritone"   clef=bass
V:8 name="Bass I"     clef=bass
K: G
%%
% -------------------------------------------------------
% FIRST HALF: Upper choir (S1 S2 A1 A2) only; lower choir rests
% -------------------------------------------------------
[V:1] G | G F G G | A A B G | c c B B | A A G \
      d | c A B B | A A G D | E F G B | A A G |]
[V:2] E | E D E E | ^F ^F G E | A A G G | ^F ^F E \
      B | A ^F G G | ^F ^F E B, | C D E G | ^F ^F E |]
[V:3] D | D C B, D | E E D G | E ^F G D | E D C \
      G | E D C D | E ^F G E | E D B, D | c B G |]
[V:4] B, | G, A, G, G, | A, G, G, B, | A, A, B, B, | C B, A, \
      D | C B, A, B, | A, A, B, G, | A, A, G, A, | G, ^F, E, |]
[V:5] z4 | z4 | z4 | z4 | z4 \
      d | c B A B | c A B G | A G ^F G | E ^F G |]
[V:6] z4 | z4 | z4 | z4 | z4 \
      B | A G ^F G | G E G E | ^F E D E | C D D |]
[V:7] z4 | z4 | z4 | z4 | z4 \
      B | c G B B, | E ^F B, D | E ^F G D | E ^F B, |]
[V:8] z4 | z4 | z4 | z4 | z4 \
      G | A E G G, | C D G, B, | C D E B, | C D G, |]
W: 6. Now safe within His Church I'm free; Blood, Water, Spirit plead for me,
W: The Ark of God, the Inn of Grace Where I behold my Father's face.
W:
W: 7. May I in Christ my neighbor know Binding his wounds serves Christ below.
W: Your love for him make plain through me, that he may, too, your Glory see.
W:
W: 8. You loved me when I could not love, For my sin barred me from above.
W: In Christ my love is now set free, O praise and bless the Trinity.
